X: 32719
T: Poll Ha'penny
R: hornpipe
M: 4/4
K: Dmixolydian
ed|c2EF GEED|GBAF G2Bd|e/f/g ec ABcA|GEDE G2GE|
A2AB c2cA|d^cde g2 e/f/g|afge fdec|A/B/A GB A2:|
ef|g2ga gedA|B/^c/d ef gedg|eaag a2ag|eaag abag|
~f3a gfed|^cdef g2 e/f/g|afge fdec|A/B/A GB A2:|

